public/Gatsby-Logo.svg

<svg xmlns="http://www.w3.org/2000/svg" viewBox="0 0 106 28" focusable="false">
  <title>
    Gatsby
  </title>
  <path d="M62.9 12h2.8v10h-2.8v-1.3c-1 1.5-2.3 1.6-3.1 1.6-3.1 0-5.1-2.4-5.1-5.3 0-3 2-5.3 4.9-5.3.8 0 2.3.1 3.2 1.6V12zm-5.2 5c0 1.6 1.1 2.8 2.8 2.8 1.6 0 2.8-1.2 2.8-2.8 0-1.6-1.1-2.8-2.8-2.8-1.6 0-2.8 1.2-2.8 2.8zm13.5-2.6V22h-2.8v-7.6h-1.1V12h1.1V8.6h2.8V12h1.9v2.4h-1.9zm8.5 0c-.7-.6-1.3-.7-1.6-.7-.7 0-1.1.3-1.1.8 0 .3.1.6.9.9l.7.2c.8.3 2 .6 2.5 1.4.3.4.5 1 .5 1.7 0 .9-.3 1.8-1.1 2.5s-1.8 1.1-3 1.1c-2.1 0-3.2-1-3.9-1.7l1.5-1.7c.6.6 1.4 1.2 2.2 1.2.8 0 1.4-.4 1.4-1.1 0-.6-.5-.9-.9-1l-.6-.2c-.7-.3-1.5-.6-2.1-1.2-.5-.5-.8-1.1-.8-1.9 0-1 .5-1.8 1-2.3.8-.6 1.8-.7 2.6-.7.7 0 1.9.1 3.2 1.1l-1.4 1.6zm6.1-1.1c1-1.4 2.4-1.6 3.2-1.6 2.9 0 4.9 2.3 4.9 5.3s-2 5.3-5 5.3c-.6 0-2.1-.1-3.2-1.6V22H83V5.2h2.8v8.1zm-.3 3.7c0 1.6 1.1 2.8 2.8 2.8 1.6 0 2.8-1.2 2.8-2.8 0-1.6-1.1-2.8-2.8-2.8-1.7 0-2.8 1.2-2.8 2.8zm13 3.5L93.7 12H97l3.1 5.7 2.8-5.7h3.2l-8 15.3h-3.2l3.6-6.8zM54 13.7h-7v2.8h3.7c-.6 1.9-2 3.2-4.6 3.2-2.9 0-5-2.4-5-5.3S43.1 9 46 9c1.6 0 3.2.8 4.2 2.1l2.3-1.5C51 7.5 48.6 6.3 46 6.3c-4.4 0-8 3.6-8 8.1s3.4 8.1 8 8.1 8-3.6 8-8.1c.1-.3 0-.5 0-.7z"/>
  <path fill="#fff" d="M25 14h-7v2h4.8c-.7 3-2.9 5.5-5.8 6.5L5.5 11c1.2-3.5 4.6-6 8.5-6 3 0 5.7 1.5 7.4 3.8l1.5-1.3C20.9 4.8 17.7 3 14 3 8.8 3 4.4 6.7 3.3 11.6l13.2 13.2C21.3 23.6 25 19.2 25 14zm-22 .1c0 2.8 1.1 5.5 3.2 7.6 2.1 2.1 4.9 3.2 7.6 3.2L3 14.1z"/>
  <path d="M14 0C6.3 0 0 6.3 0 14s6.3 14 14 14 14-6.3 14-14S21.7 0 14 0zM6.2 21.8C4.1 19.7 3 16.9 3 14.2L13.9 25c-2.8-.1-5.6-1.1-7.7-3.2zm10.2 2.9L3.3 11.6C4.4 6.7 8.8 3 14 3c3.7 0 6.9 1.8 8.9 4.5l-1.5 1.3C19.7 6.5 17 5 14 5c-3.9 0-7.2 2.5-8.5 6L17 22.5c2.9-1 5.1-3.5 5.8-6.5H18v-2h7c0 5.2-3.7 9.6-8.6 10.7z" fill="#639"/>
</svg>

<?xml version="1.0" encoding="UTF-8" standalone="no"?>
<!DOCTYPE svg PUBLIC "-//W3C//DTD SVG 1.1//EN" "http://www.w3.org/Graphics/SVG/1.1/DTD/svg11.dtd">
<svg width="100%" height="100%" viewBox="0 0 400 106" version="1.1" xmlns="http://www.w3.org/2000/svg" xmlns:xlink="http://www.w3.org/1999/xlink" xml:space="preserve" xmlns:serif="http://www.serif.com/" style="fill-rule:evenodd;clip-rule:evenodd;stroke-linejoin:round;stroke-miterlimit:2;">
    <g transform="matrix(3.77358,0,0,3.77358,0,0)">
        <path d="M62.8,12L65.7,12L65.7,22L62.9,22L62.9,20.7C61.9,22.2 60.6,22.3 59.8,22.3C56.7,22.3 54.7,19.9 54.7,17C54.7,14 56.7,11.7 59.6,11.7C60.4,11.7 61.9,11.8 62.8,13.3L62.8,12ZM57.7,17C57.7,18.6 58.8,19.8 60.5,19.8C62.1,19.8 63.3,18.6 63.3,17C63.3,15.4 62.2,14.2 60.5,14.2C58.9,14.2 57.7,15.4 57.7,17ZM71.2,14.4L71.2,22L68.4,22L68.4,14.4L67.3,14.4L67.3,12L68.4,12L68.4,8.6L71.2,8.6L71.2,12L73.1,12L73.1,14.4L71.2,14.4ZM79.7,14.4C79,13.8 78.4,13.7 78.1,13.7C77.4,13.7 77,14 77,14.5C77,14.8 77.1,15.1 77.9,15.4L78.6,15.6C79.4,15.9 80.6,16.2 81.1,17C81.4,17.4 81.6,18 81.6,18.7C81.6,19.6 81.3,20.5 80.5,21.2C79.7,21.9 78.7,22.3 77.5,22.3C75.4,22.3 74.3,21.3 73.6,20.6L75.1,18.9C75.7,19.5 76.5,20.1 77.3,20.1C78.1,20.1 78.7,19.7 78.7,19C78.7,18.4 78.2,18.1 77.8,18L77.2,17.8C76.5,17.5 75.7,17.2 75.1,16.6C74.6,16.1 74.3,15.5 74.3,14.7C74.3,13.7 74.8,12.9 75.3,12.4C76.1,11.8 77.1,11.7 77.9,11.7C78.6,11.7 79.8,11.8 81.1,12.8L79.7,14.4ZM85.8,13.3C86.8,11.9 88.2,11.7 89,11.7C91.9,11.7 93.9,14 93.9,17C93.9,20 91.9,22.3 88.9,22.3C88.3,22.3 86.8,22.2 85.7,20.7L85.7,22L83,22L83,5.2L85.8,5.2L85.8,13.3ZM85.5,17C85.5,18.6 86.6,19.8 88.3,19.8C89.9,19.8 91.1,18.6 91.1,17C91.1,15.4 90,14.2 88.3,14.2C86.6,14.2 85.5,15.4 85.5,17ZM98.5,20.5L93.7,12L97,12L100.1,17.7L102.9,12L106.1,12L98.1,27.3L94.9,27.3L98.5,20.5ZM54,13.7L47,13.7L47,16.5L50.7,16.5C50.1,18.4 48.7,19.7 46.1,19.7C43.2,19.7 41.1,17.3 41.1,14.4C41.1,11.5 43.1,9 46,9C47.6,9 49.2,9.8 50.2,11.1L52.5,9.6C51,7.5 48.6,6.3 46,6.3C41.6,6.3 38,9.9 38,14.4C38,18.9 41.4,22.5 46,22.5C50.6,22.5 54,18.9 54,14.4C54.1,14.1 54,13.9 54,13.7Z" fill="white" style="fill-rule:nonzero;"/>
    </g>
    <g transform="matrix(3.77358,0,0,3.77358,0,0)">
        <path d="M25,14L18,14L18,16L22.8,16C22.1,19 19.9,21.5 17,22.5L5.5,11C6.7,7.5 10.1,5 14,5C17,5 19.7,6.5 21.4,8.8L22.9,7.5C20.9,4.8 17.7,3 14,3C8.8,3 4.4,6.7 3.3,11.6L16.5,24.8C21.3,23.6 25,19.2 25,14ZM3,14.1C3,16.9 4.1,19.6 6.2,21.7C8.3,23.8 11.1,24.9 13.8,24.9L3,14.1Z" style="fill:white;fill-rule:nonzero;"/>
    </g>
    <g transform="matrix(3.77358,0,0,3.77358,0,0)">
        <path d="M14,0C6.3,0 0,6.3 0,14C0,21.7 6.3,28 14,28C21.7,28 28,21.7 28,14C28,6.3 21.7,0 14,0ZM6.2,21.8C4.1,19.7 3,16.9 3,14.2L13.9,25C11.1,24.9 8.3,23.9 6.2,21.8ZM16.4,24.7L3.3,11.6C4.4,6.7 8.8,3 14,3C17.7,3 20.9,4.8 22.9,7.5L21.4,8.8C19.7,6.5 17,5 14,5C10.1,5 6.8,7.5 5.5,11L17,22.5C19.9,21.5 22.1,19 22.8,16L18,16L18,14L25,14C25,19.2 21.3,23.6 16.4,24.7Z" style="fill:rgb(102,51,153);fill-rule:nonzero;"/>
    </g>
</svg>
